src/icons/menu.svg

<svg viewBox="0 0 22 12" xmlns="http://www.w3.org/2000/svg">
    <path d="M0 0h22v2H0V0zm0 5h22v2H0V5zm0 5h22v2H0v-2z"/>
</svg>

<?xml version="1.0" encoding="UTF-8"?>
<svg width="22px" height="12px" viewBox="0 0 22 12" version="1.1" xmlns="http://www.w3.org/2000/svg" xmlns:xlink="http://www.w3.org/1999/xlink">
    <path d="M0,0 L22,0 L22,2 L0,2 L0,0 Z M0,5 L22,5 L22,7 L0,7 L0,5 Z M0,10 L22,10 L22,12 L0,12 L0,10 Z"></path>
</svg>
